build/assets/fonts/2a87d23fcf628021ed81203dc2305938.svg

<svg width="100" height="60" viewBox="0 0 100 60" version="1.1" xmlns="http://www.w3.org/2000/svg" xmlns:xlink="http://www.w3.org/1999/xlink"><title>Shopify-light</title><desc>Created with Sketch.</desc><g id="Light-Payment-badges" stroke="none" stroke-width="1" fill="none" fill-rule="evenodd" transform="translate(-130.000000, -589.000000)"><g id="Shopify-light" transform="translate(130.000000, 589.000000)"><rect id="Rectangle" fill="#FFF" x="0" y="0" width="100" height="60" rx="4"/><path d="M20.6979286,19.78375 C20.8154911,19.78375 20.9339018,19.8241406 21.0472232,19.9032031 C20.1744107,20.3193125 19.2388304,21.3674062 18.8437321,23.4603281 C18.2662679,23.6414844 17.7018661,23.8185156 17.1800446,23.9823125 C17.6428304,22.3859375 18.7417768,19.78375 20.6979286,19.78375 L20.6979286,19.78375 Z M21.507125,20.5597656 C21.6745625,20.9849844 21.7834732,21.5951406 21.7834732,22.4185937 C21.7834732,22.4607031 21.7831339,22.4992031 21.7827946,22.5382187 C21.1198304,22.7461875 20.3998661,22.9720312 19.6780357,23.1985625 C20.0833125,21.613875 20.8429732,20.8485156 21.507125,20.5597656 L21.507125,20.5597656 Z M23.5162054,21.99475 C23.2137321,22.089625 22.8698661,22.1973906 22.4971607,22.3142656 C22.4975,22.2415625 22.4976696,22.1698906 22.4976696,22.0916875 C22.4976696,21.4093437 22.4043661,20.8600312 22.2542321,20.4245 C22.8568036,20.5011562 23.2580089,21.1955312 23.5162054,21.99475 L23.5162054,21.99475 Z M28.4073482,23.2093906 C28.3927589,23.1017969 28.2997946,23.0423281 28.2229464,23.0357969 C28.1462679,23.0292656 26.523125,22.9074062 26.523125,22.9074062 C26.523125,22.9074062 25.3958482,21.7735469 25.2721786,21.6480781 C25.1483393,21.5227812 24.9065982,21.5607656 24.8127857,21.5887812 C24.798875,21.5929062 24.5664643,21.6656094 24.1818839,21.7860937 C23.8052768,20.6883281 23.1407857,19.6794219 21.9716071,19.6794219 C21.939375,19.6794219 21.906125,19.6807969 21.872875,19.6826875 C21.540375,19.2371875 21.1284821,19.0436562 20.7727411,19.0436562 C18.0492946,19.0436562 16.7481339,22.4930156 16.3401429,24.2459687 C15.2819107,24.5782031 14.5300536,24.8143594 14.4340357,24.8449531 C13.8431696,25.0326406 13.8246786,25.0515469 13.7471518,25.6154687 C13.688625,26.0424062 12.1430089,38.1527187 12.1430089,38.1527187 L24.1868036,40.439 L30.712625,39.0086562 C30.712625,39.0086562 28.4217679,23.3169844 28.4073482,23.2093906 L28.4073482,23.2093906 Z" id="Fill-3" fill="#8CB849"/><path d="M28.2229464,23.0357969 C28.1462679,23.0292656 26.523125,22.9074063 26.523125,22.9074063 C26.523125,22.9074063 25.3958482,21.7735469 25.2721786,21.64825 C25.2258661,21.6013281 25.1634375,21.5774375 25.098125,21.567125 L24.1874821,40.4388281 L30.712625,39.0086563 C30.712625,39.0086563 28.4217679,23.3171563 28.4073482,23.2093906 C28.3927589,23.1017969 28.2997946,23.0423281 28.2229464,23.0357969" id="Fill-4" fill="#5A873E"/><path d="M21.9716071,26.689 L21.1669911,29.1139844 C21.1669911,29.1139844 20.4619554,28.7327656 19.5977946,28.7327656 C18.3309018,28.7327656 18.2671161,29.5383437 18.2671161,29.7413281 C18.2671161,30.8488906 21.1166071,31.27325 21.1166071,33.8675312 C21.1166071,35.9085469 19.8390268,37.222875 18.1161339,37.222875 C16.0485268,37.222875 14.9914821,35.9192031 14.9914821,35.9192031 L15.5450268,34.0662187 C15.5450268,34.0662187 16.6317589,35.0115312 17.5488482,35.0115312 C18.1478571,35.0115312 18.3918036,34.5335469 18.3918036,34.1842969 C18.3918036,32.7395156 16.0539554,32.6750625 16.0539554,30.301125 C16.0539554,28.3030781 17.4692857,26.3694844 20.32675,26.3694844 C21.4277321,26.3694844 21.9716071,26.689 21.9716071,26.689" id="Fill-5" fill="#FFFFFE"/><path d="M38.3199196,31.2350938 C37.6691696,30.87725 37.3344643,30.5757813 37.3344643,30.1612188 C37.3344643,29.6337344 37.7992857,29.294625 38.5245089,29.294625 C39.3691607,29.294625 40.1235625,29.6526406 40.1235625,29.6526406 L40.7186696,27.8063594 C40.7186696,27.8063594 40.1715714,27.3730625 38.5616607,27.3730625 C36.3210179,27.3730625 34.7682768,28.6729531 34.7682768,30.5005 C34.7682768,31.5365625 35.4935,32.327875 36.4604643,32.893 C37.2415,33.3450313 37.5203929,33.6654063 37.5203929,34.1365156 C37.5203929,34.6263594 37.129875,35.0218438 36.4046518,35.0218438 C35.3243661,35.0218438 34.3034554,34.4567188 34.3034554,34.4567188 L33.6711964,36.303 C33.6711964,36.303 34.6139018,36.9434063 36.2000625,36.9434063 C38.5060179,36.9434063 40.1608839,35.79425 40.1608839,33.7219531 C40.1608839,32.6104375 39.3240357,31.819125 38.3199196,31.2350938" id="Fill-6" fill="#000"/><path d="M47.5057411,27.3541562 C46.3715089,27.3541562 45.4790179,27.9005469 44.7909464,28.7295 L44.7537946,28.7105937 L45.73925,23.492125 L43.1732321,23.492125 L40.6815179,36.7739375 L43.2475357,36.7739375 L44.1030446,32.2336875 C44.43775,30.5192344 45.3115804,29.4642656 46.1297679,29.4642656 C46.7062143,29.4642656 46.9294643,29.85975 46.9294643,30.4250469 C46.9294643,30.7828906 46.8921429,31.2161875 46.8178393,31.5742031 L45.850875,36.7739375 L48.4170625,36.7739375 L49.4210089,31.4047344 C49.5326339,30.8394375 49.6071071,30.1612187 49.6071071,29.7091875 C49.6071071,28.2396562 48.8445625,27.3541562 47.5057411,27.3541562" id="Fill-7" fill="#000"/><path d="M54.144375,34.9652969 C53.270375,34.9652969 52.8985179,34.2117969 52.8985179,33.2699219 C52.8985179,31.7814844 53.6608929,29.3511719 55.0555268,29.3511719 C55.9665089,29.3511719 56.2640625,30.1424844 56.2640625,30.9148906 C56.2640625,32.51625 55.5016875,34.9652969 54.144375,34.9652969 L54.144375,34.9652969 Z M55.4087232,27.3541562 C52.3220714,27.3541562 50.2766875,30.180125 50.2766875,33.3262969 C50.2766875,35.3422187 51.5038839,36.9623125 53.8096696,36.9623125 C56.8405089,36.9623125 58.8858929,34.2117969 58.8858929,30.9901719 C58.8858929,29.1251562 57.8074732,27.3541562 55.4087232,27.3541562 L55.4087232,27.3541562 Z" id="Fill-8" fill="#000"/><path d="M62.9956607,35.0029375 C62.3293036,35.0029375 61.9357321,34.6263594 61.9357321,34.6263594 L62.3634018,32.195875 C62.6609554,30.5757812 63.4976339,29.5019062 64.3902946,29.5019062 C65.1711607,29.5019062 65.4129018,30.2366719 65.4129018,30.933625 C65.4129018,32.6104375 64.4274464,35.0029375 62.9956607,35.0029375 L62.9956607,35.0029375 Z M65.4502232,27.3541562 C63.7183393,27.3541562 62.7352589,28.8989687 62.7352589,28.8989687 L62.6981071,28.8989687 L62.8468839,27.5048906 L60.5784196,27.5048906 C60.4667946,28.4469375 60.2622054,29.8786562 60.0576161,30.9525312 L58.2724643,40.4665 L60.8386518,40.4665 L61.5452143,36.6232031 L61.6010268,36.6232031 C61.6010268,36.6232031 62.1279375,36.9623125 63.1072857,36.9623125 C66.1196339,36.9623125 68.0905446,33.8350469 68.0905446,30.6699687 C68.0905446,28.917875 67.3281696,27.3541562 65.4502232,27.3541562 L65.4502232,27.3541562 Z" id="Fill-9" fill="#000"/><path d="M71.7539821,23.6239531 C70.9359643,23.6239531 70.2850446,24.2832656 70.2850446,25.131125 C70.2850446,25.9035313 70.7685268,26.4311875 71.49375,26.4311875 L71.5309018,26.4311875 C72.3304286,26.4311875 73.0185,25.884625 73.0371607,24.9240156 C73.0371607,24.1703438 72.5350179,23.6239531 71.7539821,23.6239531" id="Fill-10" fill="#000"/><polyline id="Fill-11" fill="#000" points="68.1651875 36.7739375 70.731375 36.7739375 72.4792054 27.5614375 69.8945268 27.5614375 68.1651875 36.7739375"/><path d="M79.005875,27.5425313 L77.2207232,27.5425313 L77.3136875,27.1092344 C77.4624643,26.2239063 77.9830982,25.4325938 78.8386071,25.4325938 C79.2952857,25.4325938 79.656625,25.5644219 79.656625,25.5644219 L80.1587679,23.5297656 C80.1587679,23.5297656 79.7124375,23.30375 78.7641339,23.30375 C77.8529821,23.30375 76.9418304,23.5675781 76.2537589,24.1703438 C75.3799286,24.9240156 74.97075,26.016625 74.7663304,27.1092344 L74.6918571,27.5425313 L73.5018125,27.5425313 L73.1299554,29.5019063 L74.32,29.5019063 L72.9625179,36.7739375 L75.5285357,36.7739375 L76.8860179,29.5019063 L78.6525089,29.5019063 L79.005875,27.5425313" id="Fill-12" fill="#000"/><path d="M85.1793482,27.5614375 C85.1793482,27.5614375 83.575375,31.6563594 82.8550714,33.8915938 L82.8179196,33.8915938 C82.7685536,33.1719531 82.1856607,27.5614375 82.1856607,27.5614375 L79.4893571,27.5614375 L81.0327679,36.0204375 C81.0699196,36.2086406 81.0514286,36.3217344 80.9769554,36.4537344 C80.6794018,37.0377656 80.1774286,37.6028906 79.5823214,38.0172813 C79.0990089,38.3752969 78.5597143,38.6013125 78.1320446,38.7520469 L78.8386071,40.9563438 C79.3592411,40.84325 80.4378304,40.4099531 81.3488125,39.5433594 C82.5203661,38.4318438 83.5987857,36.7173906 84.7145268,34.3812656 L87.8569911,27.5614375 L85.1793482,27.5614375" id="Fill-13" fill="#000"/></g></g></svg>

<svg width="100" height="60" xmlns="http://www.w3.org/2000/svg"><g fill="none" fill-rule="evenodd"><rect fill="#FFF" width="100" height="60" rx="4"/><path d="M20.698 19.784a.61.61 0 0 1 .35.12c-.874.415-1.81 1.463-2.204 3.556l-1.664.522c.463-1.596 1.562-4.198 3.518-4.198zm.81.776c.167.425.275 1.035.275 1.859v.12l-2.105.66c.405-1.585 1.165-2.35 1.83-2.64zm2.008 1.435l-1.019.32v-.223c0-.683-.093-1.232-.243-1.668.603.077 1.004.772 1.262 1.57zm4.891 1.214a.205.205 0 0 0-.184-.173c-.077-.007-1.7-.129-1.7-.129s-1.127-1.133-1.25-1.259c-.125-.125-.366-.087-.46-.06l-.631.198c-.377-1.098-1.041-2.107-2.21-2.107-.033 0-.066.002-.1.004-.332-.446-.744-.64-1.1-.64-2.723 0-4.024 3.45-4.432 5.203l-1.906.599c-.59.188-.61.207-.687.77-.058.427-1.604 12.538-1.604 12.538l12.044 2.286 6.526-1.43-2.306-15.8z" fill="#8CB849"/><path d="M28.223 23.036c-.077-.007-1.7-.129-1.7-.129s-1.127-1.133-1.25-1.259a.306.306 0 0 0-.175-.08l-.91 18.87 6.525-1.43-2.306-15.799a.205.205 0 0 0-.184-.173" fill="#5A873E"/><path d="M21.972 26.689l-.805 2.425s-.705-.381-1.57-.381c-1.266 0-1.33.805-1.33 1.008 0 1.108 2.85 1.532 2.85 4.127 0 2.04-1.278 3.355-3 3.355-2.068 0-3.126-1.304-3.126-1.304l.554-1.853s1.087.946 2.004.946c.599 0 .843-.478.843-.828 0-1.444-2.338-1.509-2.338-3.883 0-1.998 1.415-3.932 4.273-3.932 1.1 0 1.645.32 1.645.32" fill="#FFFFFE"/><path d="M38.32 31.235c-.65-.358-.986-.66-.986-1.074 0-.527.465-.866 1.19-.866.845 0 1.6.358 1.6.358l.595-1.847s-.547-.433-2.157-.433c-2.241 0-3.794 1.3-3.794 3.127 0 1.037.725 1.828 1.692 2.393.782.452 1.06.772 1.06 1.244 0 .49-.39.885-1.115.885-1.08 0-2.102-.565-2.102-.565l-.632 1.846s.943.64 2.53.64c2.305 0 3.96-1.149 3.96-3.221 0-1.112-.837-1.903-1.841-2.487m9.186-3.881c-1.134 0-2.027.547-2.715 1.376l-.037-.02.985-5.218h-2.566l-2.491 13.282h2.566l.855-4.54c.335-1.715 1.209-2.77 2.027-2.77.576 0 .8.396.8.961 0 .358-.038.791-.112 1.15l-.967 5.199h2.566l1.004-5.37a9.825 9.825 0 0 0 .186-1.695c0-1.47-.762-2.355-2.101-2.355m6.638 7.611c-.874 0-1.245-.753-1.245-1.695 0-1.489.762-3.919 2.157-3.919.91 0 1.208.791 1.208 1.564 0 1.601-.762 4.05-2.12 4.05zm1.265-7.61c-3.087 0-5.132 2.825-5.132 5.971 0 2.016 1.227 3.636 3.533 3.636 3.03 0 5.076-2.75 5.076-5.972 0-1.865-1.079-3.636-3.477-3.636zm7.587 7.648c-.667 0-1.06-.377-1.06-.377l.427-2.43c.298-1.62 1.135-2.694 2.027-2.694.781 0 1.023.735 1.023 1.432 0 1.676-.986 4.069-2.417 4.069zm2.454-7.649c-1.732 0-2.715 1.545-2.715 1.545h-.037l.149-1.394h-2.269a56.064 56.064 0 0 1-.52 3.448l-1.786 9.514h2.567l.706-3.844h.056s.527.34 1.506.34c3.013 0 4.984-3.128 4.984-6.293 0-1.752-.763-3.316-2.64-3.316zm6.304-3.73c-.818 0-1.469.66-1.469 1.507 0 .773.484 1.3 1.209 1.3h.037c.8 0 1.487-.546 1.506-1.507 0-.754-.502-1.3-1.283-1.3m-3.589 13.15h2.566l1.748-9.213h-2.584l-1.73 9.213m10.841-9.231H77.22l.093-.434c.148-.885.67-1.676 1.525-1.676.456 0 .818.131.818.131l.502-2.034s-.447-.226-1.395-.226c-.911 0-1.822.264-2.51.866-.874.754-1.283 1.847-1.488 2.94l-.074.433h-1.19l-.372 1.959h1.19l-1.357 7.272h2.566l1.357-7.272h1.767l.353-1.96m6.175.019s-1.605 4.095-2.325 6.33h-.037c-.05-.719-.632-6.33-.632-6.33h-2.697l1.544 8.46c.037.188.018.3-.056.433-.298.584-.8 1.149-1.395 1.563-.483.358-1.022.584-1.45.735l.707 2.204c.52-.113 1.599-.546 2.51-1.413 1.171-1.111 2.25-2.826 3.366-5.162l3.142-6.82h-2.678" fill="#000"/></g></svg>
